res/skins/LateNight/palemoon/buttons/btn__keylock_active_12.svg

<?xml version="1.0" encoding="UTF-8" standalone="no"?>
<svg
   xmlns:dc="http://purl.org/dc/elements/1.1/"
   xmlns:cc="http://creativecommons.org/ns#"
   xmlns:rdf="http://www.w3.org/1999/02/22-rdf-syntax-ns#"
   xmlns:svg="http://www.w3.org/2000/svg"
   xmlns="http://www.w3.org/2000/svg"
   id="svg2"
   width="21"
   height="18"
   version="1.1"
   viewBox="0 0 21 18">
  <metadata
     id="metadata8">
    <rdf:RDF>
      <cc:Work
         rdf:about="">
        <dc:format>image/svg+xml</dc:format>
        <dc:type
           rdf:resource="http://purl.org/dc/dcmitype/StillImage" />
        <dc:title></dc:title>
      </cc:Work>
    </rdf:RDF>
  </metadata>
  <defs
     id="defs6" />
  <path
     id="rect4195"
     d="m 4,8 v 7 H 17 V 8 Z m 6,2 h 1 v 3 h -1 z"
     style="fill:#988f86;fill-opacity:1;stroke:none" />
  <path
     d="M 10.5,2.5 C 8.0147186,2.5 6,4.5147186 6,7 V 8 H 8 V 7 C 8,5.6192881 9.1192881,4.5 10.5,4.5 11.880712,4.5 13,5.6192881 13,7 v 1 h 2 V 7 C 15,4.5147186 12.985281,2.5 10.5,2.5 Z"
     style="fill:#988f86;fill-opacity:1;stroke:none;stroke-width:1.70255;stroke-linecap:round;stroke-linejoin:round;stroke-miterlimit:4;stroke-dasharray:none;stroke-opacity:1"
     id="path1060" />
</svg>

<svg width="21" height="18" version="1.1" viewBox="0 0 21 18" xmlns="http://www.w3.org/2000/svg">
  <path d="m4 8v7h13v-7zm6 2h1v3h-1z" fill="#988f86"/>
  <path d="m10.5 2.5c-2.48528 0-4.5 2.01472-4.5 4.5v1h2v-1c0-1.38071 1.11929-2.5 2.5-2.5 1.38071 0 2.5 1.11929 2.5 2.5v1h2v-1c0-2.48528-2.01472-4.5-4.5-4.5z" fill="#988f86"/>
</svg>
